X: 1269
T: Bill Cooper's Waltz
B: australian traditional tunes wiki
M:3/4
L:1/8
R: Waltz
Q: 1/4=100
K:D
V:1 
|:A2|"D"F2 A2 A2|B2 A2 A2|F2 A2 d2|f4 ef|"A7"g2 e2 c2|1
"A7"A2 c2 e2|g2 f2 e2|"D"f4:|2"A"A2B2 c2|"D"d6-|d4 a2||
|:"D"b2 a2 f2|A2 d2 f2|a2 g2 f2|"A7"g4 ef|g2 e2 c2|1
A2 c2 e2|g2 f2 e2|"D"f4 aa:|2"A7"A2B2 c2|"D"d6-|d4||
% abcbook-tune_id 6342d53a8ba9c89ac122200c


% abcbook-boost 0
% abcbook-tablature 
% abcbook-transpose 
% abcbook-lastupdated 1665324356847
% abcbook-soundfonts 
% abcbook-repeats 1
% NFF Book 2006

